X:1
T:Hor che la terra
T:Giovanni Matteo Asola
T:Source : Madrigali a due voci---Venetia---G.Vincenti---1587. Editor : André Vierendeels (14/11/17t. Notes : Original clef : C3 ( Fuga di doi tempi, in unisono) Editorial accidentals above the staff (Prima stanza?)
T:Hor che la terra
T:©
T:©
T:©
T:©
T:©
T:©
C:Giovanni Matteo Asola
Z:©
%%score [ 1 2 ]
L:1/8
Q:1/4=170
M:4/4
K:F
V:1 treble-8 nm="Tenor 1" snm="T 1"
V:2 treble-8 nm="Tenor 2" snm="T 2"
V:1
 G8 | d6 d2 | B4 G4 | B6 c2 | d4 g4 | g4 f4 | g8 | d4 G4- | G2 A2 B2 c2 | d4 d4 | c4 G4 | z4 g4 | %12
w: Hor|che la|ter- ra|di _|_ fio-|ret- ti'e|fron-|de, si|_ _ _ _|ri- nu-|e- *|vir-|
 g4 g4 | f6 ed | e4 d4 | c6 B2 | G2 A2 B2 c2 | d4 B4 | A4 z2 d2 | e4 g4 | g2 f2 d2 e2 | f4 g4 | %22
w: tu del|vi- * *|* vo|lu- *|||me, vir-|tu del|vi- * * *|* vo|
 a4 d4 | z4 G4 | B4 B4 | A4 G4 | F4 G4 | B2 A2 B2 c2 | d2 e2 f2 d2 | e2 f2 g2 d2 | f4 e4 | d6 c2 | %32
w: lu- me,|che|m'ar- se|già fin|da l'em-|pi- * * *|||re- o|cie- *|
 B8 | A4 G4 | A4 A4 | B2 c2 d2 e2 | f2 e2 f2 g2 | a4 d4 | f2 ed e4 | d8 | z4 d4 | A2 A2 B4 | %42
w: |lo, fin|da l'em-|pi- * * *||re- o|cie- * * *|lo,|tra|que- sti fre-|
 A2 d4 c2 | d2 G2 B2 B2 | A4 G2 d2- | d2 c2 d4 | z2 f2 f2 e2 | f2 g2 f2 d2 | e2 f2 g2 f2 | %49
w: schi col- *|li, tra que- sti|fre- schi col-|* * li,|tra que- sti|fre- schi col- li|val- li'e pog- *|
 e4 d2 G2 | B2 A2 B2 c2 | d2 G2 B4 | A4 G2 d2- |"^#" d2 c2 d4 | z2 c2 d2 e2 | f2 g2 d2 d2 | %56
w: * gi, e|che l'au- ra gen-|til ri- no-|va'l tem- *|* * po,|e che l'au-|ra gen- til ri-|
 e3 f g2 f2 | e4 d2 B2 | B2 A2 B2 c2 | d2 G2 B2 B2 | A4 G4 | z4 d4 | d2 c2 d2 e2 | f2 g2 f2 d2 | %64
w: no- * * va'l|tem- po, al-|tre spo- glie pren-|den- do'i tron- ch'i|ra- mi,|al-|tre spo- glie pren-|den- do'i tron- chi|
 e6 dc | d3 c B4 | A4 z2 A2 | A2 G2 A2 B2 | c4 A4 | G4 d3 e | f4 e4 | z2 e4 d2 | e4 f4 | g4 G4 | %74
w: ra- * *||mi, al-|tre spo- glie pren-|den- do'i|tron ch'i- e'i|ra- mi,|i tron-|ch'i'ei ra-|mi: i|
 A2 B2 c3 B | A4 G2 G2 | c2 c2 A4 | G4 z2 d2 | c2 d2 e2 g2- | g2 f2 g2 d2 | e2 g2 f4 | %81
w: tron ch'i'ei ra- *|* mi, i|tron- ch'i'ei ra-|mi i|tron- ch'- ei ra-|* * mi, i|tron- ch'i'ei ra-|
 g2 d2 f3 e/d/ | e2 f2 g2 _e2 | d4 G4 | c2 c2 A4 | G8 |] %86
w: mi, i tron- * *|* ch'i e i|ra- mi,|e- i ra-|mi.|
V:2
 z8 | z8 | z8 | z8 | G8 | d6 d2 | B4 G4 | B6 c2 | d4 g4 | g4 f4 | g8 | d4 G4- | G2 A2 B2 c2 | %13
w: ||||Hor|che la|ter- ra|di _|_ fio-|ret- ti'e|fron-|de, si|_ _ _ _|
 d4 d4 | c4 G4 | z4 g4 | g4 g4 | f6 ed | e4 d4 | c6 B2 | G2 A2 B2 c2 | d4 B4 | A4 z2 d2 | e4 g4 | %24
w: ri- nu-|e- ste|vir-|tu del|vi- * *|* vo|lu- *|||me, vir-|tu del|
 g2 f2 d2 e2 | f4 g4 | a4 d4 | z4 G4 | B4 B4 | A4 G4 | F4 G4 | B2 A2 B2 c2 | d2 e2 f2 d2 | %33
w: vi- * * *|* vo|lu- me,|che|m'ar- se|già fin|da l'epi-|||
 e2 f2 g2 d2 | f4 e4 | d6 c2 | B8 | A4 G4 |"^#" A4 A4 | B2 c2 d2 e2 | f2 e2 f2 g2 | a4 d4 | %42
w: |re- o|cie- *||lo, fin|da l'em-|pi- * * *||re- o|
 f2 ed e4 | d8 | z4 d4 | A2 A2 B4 | A2 d4 c2 | d2 G2 B2 B2 | A4 G2 d2- |"^#" d2 c2 d4 | %50
w: cie- * * *|lo,|tra|que- sti fre-|schi col- *|li, tra que- sti|fre- schi col-|* * li,|
 z2 f2 f2 e2 | f2 g2 f2 d2 | e2 f2 g2 f2 | e4 d2 G2 | B2 A2 B2 c2 | d2 G2 B4 | A4 G2 d2- | %57
w: tra que- sti|fre- schi col- li|val- li'e pog- *|* gi, e|che l'au- ra gen-|til ri- no-|va'l tem- *|
"^#" d2 c2 d4 | z2 c2 d2 e2 | f2 g2 d2 d2 | e3 f g2 f2 | e4 d2 B2 | B2 A2 B2 c2 | d2 G2 B2 B2 | %64
w: * * po,|e che l'au-|ra gen- til ri-|no- * * va'l|tem- po, al-|tre spo- glie pren-|den- do'i tron- chi|
 A4 G4 | z4 d4 | d2 c2 d2 e2 | f2 g2 f2 d2 | e6 dc | d3 c B4 | A4 z2 A2 | A2 G2 A2 B2 | c4 A4 | %73
w: ra- mi,|al-|tri spo- glie pren-|den- do'i tron- ch'i|e'i- * *|* * ra-|mi, i|tron- ch'i e i|ra- mi,|
 G4 d3 e | f4 e4 | z2 e4 d2 |"^#""^#" e4 f4 | g4 G4 | A2 B2 c3 B | A4 G2 G2 | c2 c2 A4 | G4 z2 d2 | %82
w: i tron- ch'i'ei|ra- mi,|i tron-|ch'i'ei ra-|mi, i|tron- ch'i e i|ra- mi, i|tron- ch'i'ei ra-|mi, i|
 c2 d2 e2 g2- | g2 f2 g2 d2 |"^#" e2 g2 f4 | g8 |] %86
w: tron- ch'i e'i ra-|* * * mi,|e i ra-|mi.|

